src/assets/outline/Dash.svg

<svg width="24" height="24" viewBox="0 0 24 24"  xmlns="http://www.w3.org/2000/svg">
<path d="M13.4998 21.25H3.93983C3.70983 21.25 3.48983 21.14 3.34983 20.96C3.20983 20.78 3.15983 20.54 3.20983 20.32L4.26983 16.07C4.34983 15.74 4.64983 15.5 4.99983 15.5H12.4398C15.3398 15.5 16.9998 13.84 16.9998 10.94V10.75C16.9998 9.15 16.3498 8.5 14.7498 8.5H6.05983C5.82983 8.5 5.60983 8.39001 5.46983 8.21001C5.32983 8.03001 5.27983 7.79001 5.32983 7.57001L6.38983 3.32001C6.46983 2.99001 6.76983 2.75 7.11983 2.75H15.9998C20.1598 2.75 22.7498 5.34 22.7498 9.5V12C22.7498 17.71 19.2098 21.25 13.4998 21.25ZM4.89983 19.75H13.4998C18.3498 19.75 21.2498 16.85 21.2498 12V9.5C21.2498 6.16 19.3398 4.25 15.9998 4.25H7.70983L7.01983 7H14.7498C17.1698 7 18.4998 8.33 18.4998 10.75V10.94C18.4998 14.68 16.1798 17 12.4398 17H5.58983L4.89983 19.75Z" />
<path d="M9.18989 14.2498H1.99989C1.76989 14.2498 1.54989 14.1398 1.40989 13.9598C1.26989 13.7798 1.21989 13.5398 1.26989 13.3198L1.63989 11.8398C1.94989 10.6098 3.03989 9.75977 4.30989 9.75977H11.4999C11.7299 9.75977 11.9499 9.86977 12.0899 10.0498C12.2299 10.2298 12.2799 10.4698 12.2299 10.6898L11.8599 12.1698C11.5499 13.3898 10.4499 14.2498 9.18989 14.2498ZM2.95989 12.7498H9.18989C9.75989 12.7498 10.2599 12.3598 10.3999 11.7998L10.5399 11.2498H4.30989C3.73989 11.2498 3.23989 11.6398 3.09989 12.1998L2.95989 12.7498Z" />
</svg>

<?xml version="1.0" encoding="UTF-8"?>
<svg width="24" height="24" viewBox="0 0 24 24" xmlns="http://www.w3.org/2000/svg">
 <path d="m13.5 21.25h-9.56c-0.23 0-0.45-0.11-0.59-0.29s-0.19-0.42-0.14-0.64l1.06-4.25c0.08-0.33 0.38-0.57 0.73-0.57h7.44c2.9 0 4.56-1.66 4.56-4.56v-0.19c0-1.6-0.65-2.25-2.25-2.25h-8.69c-0.23 0-0.45-0.10999-0.59-0.28999s-0.19-0.42-0.14-0.64l1.06-4.25c0.08-0.33 0.38-0.57001 0.73-0.57001h8.88c4.16 0 6.75 2.59 6.75 6.75v2.5c0 5.71-3.54 9.25-9.25 9.25zm-8.6-1.5h8.6c4.85 0 7.75-2.9 7.75-7.75v-2.5c0-3.34-1.91-5.25-5.25-5.25h-8.29l-0.69 2.75h7.73c2.42 0 3.75 1.33 3.75 3.75v0.19c0 3.74-2.32 6.06-6.06 6.06h-6.85l-0.69 2.75z"/>
 <path d="m9.1899 14.25h-7.19c-0.23 0-0.45-0.11-0.59-0.29s-0.19-0.42-0.14-0.64l0.37-1.48c0.31-1.23 1.4-2.08 2.67-2.08h7.19c0.23 0 0.45 0.11 0.59 0.29003 0.14 0.18 0.19 0.42 0.14 0.64l-0.37 1.48c-0.31 1.22-1.41 2.08-2.67 2.08zm-6.23-1.5h6.23c0.57 0 1.07-0.39 1.21-0.95l0.14-0.55h-6.23c-0.57 0-1.07 0.39-1.21 0.95l-0.14 0.55z"/>
</svg>
